icons/svg/microphone-off.svg

<svg width="24" height="24" viewBox="0 0 24 24" fill="none" xmlns="http://www.w3.org/2000/svg">
<path d="M12 14.5972C13.7668 14.5972 15.199 13.165 15.199 11.3982V9.86422L10.7286 14.3346C11.1183 14.5035 11.5482 14.5972 12 14.5972Z" fill="currentColor"/>
<path d="M12 18.1812C15.7439 18.1812 18.7789 15.1462 18.7789 11.4023M12 18.1812L12 20.75M12 18.1812C10.5522 18.1812 9.21038 17.7273 8.10911 16.9541M5.22112 11.4023C5.22112 12.5024 5.48317 13.5413 5.94826 14.46M3.28159 21.7816L8.10911 16.9541M21.7816 3.2816L15.199 9.86422M15.199 9.86422V11.3982C15.199 13.165 13.7668 14.5972 12 14.5972C11.5482 14.5972 11.1183 14.5035 10.7286 14.3346M15.199 9.86422L10.7286 14.3346M10.7286 14.3346L8.10911 16.9541M8.84343 11.92C8.81558 11.7502 8.80109 11.5759 8.80109 11.3982V6.44894C8.80109 4.68221 10.2333 3.25 12 3.25C13.6966 3.25 15.0846 4.57066 15.1923 6.24" stroke="currentColor" stroke-width="1.5" stroke-linecap="round" stroke-linejoin="round"/>
</svg>

<svg xmlns="http://www.w3.org/2000/svg" width="24" height="24" fill="none" viewBox="0 0 24 24"><path fill="currentColor" d="M12 14.597a3.2 3.2 0 0 0 3.199-3.199V9.864l-4.47 4.47c.39.17.82.263 1.271.263"/><path stroke="currentColor" stroke-linecap="round" stroke-linejoin="round" stroke-width="1.5" d="M12 18.181a6.78 6.78 0 0 0 6.779-6.779M12 18.182v2.568m0-2.569a6.75 6.75 0 0 1-3.89-1.227m-2.89-5.552c0 1.1.262 2.14.727 3.058m-2.666 7.322 4.827-4.828M21.782 3.282l-6.583 6.582m0 0v1.534a3.2 3.2 0 0 1-4.47 2.937m4.47-4.47-4.47 4.47m0 0-2.62 2.62m.734-5.035a3 3 0 0 1-.042-.522v-4.95a3.199 3.199 0 0 1 6.391-.208"/></svg>
